X:1
T:Come to Him Now
T:Come to Him Now
T:Charles F. Green
T:Katharine E. Nash Purvis, 1898
T:Public Domain Courtesy of the Cyber Hymnal™
T:Public Domain Courtesy of the Cyber Hymnal™
C:Charles F. Green
Z:Public Domain
Z:Courtesy of the Cyber Hymnal™
%%score ( 1 2 ) ( 3 4 )
L:1/8
Q:1/4=115
M:3/4
K:D
V:1 treble 
V:2 treble 
V:3 bass 
V:4 bass 
V:1
 [DF]2 [DF]2 [DF]2 | [DA]3 [DB] [DA]2 | [CA]2 [CE]2 [CG]2 | [DF]6 | [DB]2 [DB]2 [DB]2 | %5
w: 1.~Je- sus is|wait- ing, O|sin- ner, for|thee,|Call- ing so|
w: 2.~Come from the|path that seems|plea- sant and|wide,|Nar- row the|
w: 3.~Come to the|Sav- ior whose|grace is so|free,|Come to Him|
 [FA]3 [EG] [DF]2 | [EA]2 [EG]2 [DF]2 | [CE]6 | [CE]2 [CA]2 [CE]2 | [DF]3 [EG] [DF]2 | %10
w: ten- der- ly,|“Come un- to|Me”;|Wait- ing His|mer- cy and|
w: way if thou|walk by His|side;|Nar- row, yet|bright- ened with|
w: now while He|call- eth for|thee;|En- ter the|fold by the|
 [FA]2 [Fd]2 [FA]2 | [GB]6 | [Gd]2 [Gc]2 [GB]2 | [FA]3 [EG] [DF]2 | [CG]2 [CF]2 [CE]2 | D6 || %16
w: peace to im-|part,|Come, then, O|wan- der- er,|give Him thy|heart.|
w: bless- ings un-|told,|Lead- ing thee|home to the|ci- ty of|gold.|
w: on- ly true|door,|Come, quick- ly|come, lest He|call thee no|more.|
"^Refrain" [FA]2 [FA]2 [FA]2 | [Fd]4 [Fd]2 | [Gc]2 [GB]2 [Gc]2 | [Fd]6 | [Fd]2 [Ac]2 [GB]2 | %21
w: |||||
w: Come to Him|now, He’s|wait- ing for|thee,|Turn not a-|
w: |||||
 [FA]3 [EG] [DF]2 | [DB]2 [DA]2 [DF]2 | [CE]6 | [GA]2 [GB]2 [Gc]2 | [Fd]4 [Fd]2 | %26
w: |||||
w: way from His|mer- cy so|free;|Je- sus is|wait- ing,|
w: |||||
 [Gc]2 [GB]2 [Gc]2 | [Fd]6 | [Fd]2 [Ac]2 [GB]2 | [FA]3 [EG] [DF]2 | [CG]2 [CF]2 [CE]2 | D6 |] %32
w: ||||||
w: wait- ing for|thee,|Call- ing so|ten- der- ly,|“Come un- to|Me.”|
w: ||||||
V:2
 x6 | x6 | x6 | x6 | x6 | x6 | x6 | x6 | x6 | x6 | x6 | x6 | x6 | x6 | x6 | D6 || x6 | x6 | x6 | %19
 x6 | x6 | x6 | x6 | x6 | x6 | x6 | x6 | x6 | x6 | x6 | x6 | D6 |] %32
V:3
 [D,A,]2 [D,A,]2 [D,A,]2 | [D,F,]3 [D,G,] [D,F,]2 | [A,,A,]2 [A,,A,]2 [A,,A,]2 | [D,A,]6 | %4
 G,2 G,2 G,2 | [D,A,]3 [D,A,] [D,A,]2 | [C,A,]2 [C,A,]2 [D,A,]2 | [A,,A,]6 | %8
 [A,,A,]2 [A,,E,]2 [A,,A,]2 | [D,A,]3 [D,A,] [D,A,]2 | [D,D]2 [D,A,]2 [D,D]2 | [G,D]6 | %12
 [G,B,]2 [G,C]2 [G,D]2 | [A,D]3 A, A,2 | [A,,A,]2 [A,,A,]2 [A,,G,]2 | [D,F,]6 || %16
 [D,D]2 [D,D]2 [D,D]2 | [D,A,]4 [D,A,]2 | [A,,E]2 [A,,E]2 [A,,E]2 | [D,A,D]6 | %20
 [D,A,]2 [D,A,]2 [D,D]2 | [D,D]3 [D,A,] [D,A,]2 | [D,G,]2 [D,F,]2 [D,A,]2 | [A,,A,]6 | %24
 [A,,C]2 [A,,D]2 [A,,E]2 | [D,D]4 [D,A,]2 | A,2 A,2 A,2 | [D,A,]6 | [D,A,]2 [D,A,]2 [D,D]2 | %29
 [D,D]3 [D,A,] [D,A,]2 | [A,,A,]2 [A,,A,]2 [A,,A,]2 | [D,F,]6 |] %32
V:4
 x6 | x6 | x6 | x6 | G,2 G,2 G,2 | x6 | x6 | x6 | x6 | x6 | x6 | x6 | x6 | x3 A, A,2 | x6 | x6 || %16
 x6 | x6 | x6 | x6 | x6 | x6 | x6 | x6 | x6 | x6 | A,2 A,2 A,2 | x6 | x6 | x6 | x6 | x6 |] %32

